packages/icons/src/wifi.svg

<svg width="24" height="24" viewBox="0 0 24 24" fill="none" xmlns="http://www.w3.org/2000/svg">
<path fill-rule="evenodd" clip-rule="evenodd" d="M7.396 14.563L5.542 12.667C6.37169 11.8404 7.35111 11.1793 8.428 10.719C9.53 10.24 10.722 10 12 10C13.278 10 14.469 10.243 15.573 10.73C16.6522 11.1989 17.6316 11.8703 18.458 12.708L16.604 14.562C16.001 13.9705 15.2951 13.494 14.521 13.156C13.7253 12.8123 12.8667 12.6386 12 12.646C11.097 12.646 10.257 12.816 9.48 13.156C8.701 13.496 8.007 13.966 7.396 14.562V14.563ZM3.854 11.02L2 9.167C3.27751 7.86148 4.79987 6.82064 6.48 6.104C8.186 5.368 10.027 5 12 5C13.972 5 15.813 5.368 17.52 6.104C19.2001 6.82064 20.7225 7.86148 22 9.167L20.146 11.021C19.0862 9.97164 17.839 9.13042 16.469 8.541C15.087 7.944 13.597 7.646 12 7.646C10.403 7.646 8.913 7.944 7.532 8.542C6.1617 9.13095 4.91411 9.97184 3.854 11.021V11.02ZM12 19.167L14.938 16.208C14.5608 15.8319 14.1151 15.5315 13.625 15.323C13.1112 15.1051 12.5581 14.9951 12 15C11.442 14.9948 10.8889 15.1044 10.375 15.322C9.875 15.538 9.437 15.833 9.062 16.208L12 19.167Z" fill="black"/>
</svg>

<svg xmlns="http://www.w3.org/2000/svg" width="24" height="24" fill="none" viewBox="0 0 24 24">
  <path fill="#000" fill-rule="evenodd" d="m7.396 14.563-1.854-1.896a9.228 9.228 0 0 1 2.886-1.948C9.53 10.24 10.722 10 12 10s2.469.243 3.573.73a9.206 9.206 0 0 1 2.885 1.978l-1.854 1.854a6.94 6.94 0 0 0-2.083-1.406 6.223 6.223 0 0 0-2.521-.51c-.903 0-1.743.17-2.52.51-.779.34-1.473.81-2.084 1.406v.001ZM3.854 11.02 2 9.167a13.896 13.896 0 0 1 4.48-3.063C8.186 5.368 10.027 5 12 5c1.972 0 3.813.368 5.52 1.104A13.896 13.896 0 0 1 22 9.167l-1.854 1.854a11.923 11.923 0 0 0-3.677-2.48c-1.382-.597-2.872-.895-4.469-.895-1.597 0-3.087.298-4.468.896a11.92 11.92 0 0 0-3.678 2.479v-.001ZM12 19.167l2.938-2.959a4.174 4.174 0 0 0-1.313-.885A4.07 4.07 0 0 0 12 15a4.07 4.07 0 0 0-1.625.322c-.5.216-.938.511-1.313.886L12 19.167Z" clip-rule="evenodd"/>
</svg>
